src/svg/24/market_outline_24.svg

<?xml version="1.0" encoding="UTF-8"?>
<svg width="24px" height="24px" viewBox="0 0 24 24" version="1.1" xmlns="http://www.w3.org/2000/svg" xmlns:xlink="http://www.w3.org/1999/xlink">
    <!-- Generator: Sketch 50.2 (55047) - http://www.bohemiancoding.com/sketch -->
    <title>market_outline_24</title>
    <desc>Created with Sketch.</desc>
    <defs></defs>
    <g id="Master-Library" stroke="none" stroke-width="1" fill="none" fill-rule="evenodd">
        <g id="Icons-24/market_outline_24">
            <g id="market_outline_24">
                <polygon id="Bounds" points="0 0 24 0 24 24 0 24"></polygon>
                <path d="M12,3.5 C10.6192881,3.5 9.5,4.61928813 9.5,6 L14.5,6 C14.5,4.61928813 13.3807119,3.5 12,3.5 Z M16.5,6 L16.85,6 C18.5403389,5.99987788 19.9485719,7.2955044 20.089,8.98 L20.79,17.397 C20.8887134,18.5813695 20.487001,19.7529649 19.6823108,20.6275786 C18.8776206,21.5021923 17.7434761,21.999912 16.555,22 L7.445,22 C6.25652392,21.999912 5.12237939,21.5021923 4.3176892,20.6275786 C3.51299901,19.7529649 3.11128657,18.5813695 3.21,17.397 L3.911,8.98 C4.05145994,7.29512158 5.46027711,5.99935764 7.151,6 L7.5,6 C7.5,3.51471863 9.51471863,1.5 12,1.5 C14.4852814,1.5 16.5,3.51471863 16.5,6 Z M7.15,8 C6.49983541,7.99982632 5.95809367,8.49808959 5.904,9.146 L5.204,17.563 C5.15173465,18.1896818 5.36411792,18.8096384 5.78968001,19.2726271 C6.21524211,19.7356159 6.81514286,19.9993808 7.444,20 L16.554,20 C17.1832052,19.9999397 17.7836393,19.7364179 18.2096427,19.2733625 C18.6356461,18.8103071 18.8482939,18.1900284 18.796,17.563 L18.095,9.146 C18.0409383,8.49847223 17.4997805,8.00034626 16.85,8 L7.15,8 Z" id="Shape" fill="currentColor" fill-rule="nonzero"></path>
            </g>
        </g>
    </g>
</svg>

<svg width="24px" height="24px" viewBox="0 0 24 24" version="1.1" xmlns="http://www.w3.org/2000/svg" xmlns:xlink="http://www.w3.org/1999/xlink">
    <defs>
        <path d="M12 3.5A2.5 2.5 0 0 0 9.5 6h5A2.5 2.5 0 0 0 12 3.5zM16.5 6h.35a3.25 3.25 0 0 1 3.239 2.98l.701 8.417A4.25 4.25 0 0 1 16.555 22h-9.11a4.25 4.25 0 0 1-4.235-4.603l.701-8.417A3.25 3.25 0 0 1 7.151 6H7.5a4.5 4.5 0 0 1 9 0zM7.15 8a1.25 1.25 0 0 0-1.246 1.146l-.7 8.417A2.25 2.25 0 0 0 7.444 20h9.11a2.25 2.25 0 0 0 2.242-2.437l-.701-8.417A1.25 1.25 0 0 0 16.85 8h-9.7z" fill="#FFF" fill-rule="nonzero"/>
    </defs>
</svg>
